X:117
T:Wallop the Cat
T:Where is the Cat?
R:slide
H:Also played in A #118
Z:id:hn-slide-117
M:6/8
L:1/8
K:G
DED G2D | E2D G2D | DED G2B | A2G E2D |
DED G2D | E2D G2A | BdB c2B | A2G E2D :|
|: BAB d2B | AGE c3 | BAB d2B | A2G E2D |
B3 d2B | AGE c3 | ege d2B | A2G E2D :|
P:variations
|: DED G2D | E2D G2E | DED G2B | ABG E3 |
DED G2D | E2D G2A | BdB c2B | ABG E2D :|
|: B3 d2B | AGE c3 | BAB d2B | ABG E2D |
BAB d2B | AGE c2g | ege d2B | ABG E2D :|
W:Wallop the cat, he's fine and fat,
W:wallop the cat from under the table.

